images/portal/4149.svg

<?xml version="1.0" standalone="no"?><!DOCTYPE svg PUBLIC "-//W3C//DTD SVG 1.1//EN" "http://www.w3.org/Graphics/SVG/1.1/DTD/svg11.dtd"><svg xmlns:xlink="http://www.w3.org/1999/xlink" version="1.1" class="highcharts-root" style="font-family:Arial;font-size:12px;" xmlns="http://www.w3.org/2000/svg" viewBox="0 0 485 415"><desc>Created with Highstock 5.0.7</desc><defs><clipPath id="highcharts-8lcdz1q-1"><rect x="0" y="0" width="370" height="279" fill="none"></rect></clipPath><clipPath id="highcharts-8lcdz1q-2"><rect x="0" y="0" width="370" height="279" fill="none"></rect></clipPath><clipPath id="highcharts-8lcdz1q-3"><rect x="0" y="0" width="370" height="279" fill="none"></rect></clipPath></defs><rect fill="#fbfbfb" class="highcharts-background" x="0" y="0" width="485" height="415" rx="0" ry="0"></rect><rect fill="none" class="highcharts-plot-background" x="74" y="85" width="370" height="279"></rect><g class="highcharts-grid highcharts-xaxis-grid "><path fill="none" class="highcharts-grid-line" d="M 102.5 85 L 102.5 364 M 102.5 85 L 102.5 364" opacity="1"></path><path fill="none" class="highcharts-grid-line" d="M 154.5 85 L 154.5 364 M 154.5 85 L 154.5 364" opacity="1"></path><path fill="none" class="highcharts-grid-line" d="M 206.5 85 L 206.5 364 M 206.5 85 L 206.5 364" opacity="1"></path><path fill="none" class="highcharts-grid-line" d="M 258.5 85 L 258.5 364 M 258.5 85 L 258.5 364" opacity="1"></path><path fill="none" class="highcharts-grid-line" d="M 310.5 85 L 310.5 364 M 310.5 85 L 310.5 364" opacity="1"></path><path fill="none" class="highcharts-grid-line" d="M 362.5 85 L 362.5 364 M 362.5 85 L 362.5 364" opacity="1"></path><path fill="none" class="highcharts-grid-line" d="M 414.5 85 L 414.5 364 M 414.5 85 L 414.5 364" opacity="1"></path></g><g class="highcharts-grid highcharts-yaxis-grid "><path fill="none" stroke="#e6e6e6" stroke-width="1" class="highcharts-grid-line" d="M 74 364.5 L 444 364.5" opacity="1"></path><path fill="none" stroke="#e6e6e6" stroke-width="1" class="highcharts-grid-line" d="M 74 294.5 L 444 294.5" opacity="1"></path><path fill="none" stroke="#e6e6e6" stroke-width="1" class="highcharts-grid-line" d="M 74 225.5 L 444 225.5" opacity="1"></path><path fill="none" stroke="#e6e6e6" stroke-width="1" class="highcharts-grid-line" d="M 74 155.5 L 444 155.5" opacity="1"></path><path fill="none" stroke="#e6e6e6" stroke-width="1" class="highcharts-grid-line" d="M 74 84.5 L 444 84.5" opacity="1"></path></g><g class="highcharts-grid highcharts-yaxis-grid "><path fill="none" stroke="#e6e6e6" stroke-width="1" class="highcharts-grid-line" d="M 74 364.5 L 444 364.5" opacity="1"></path><path fill="none" stroke="#e6e6e6" stroke-width="1" class="highcharts-grid-line" d="M 74 294.5 L 444 294.5" opacity="1"></path><path fill="none" stroke="#e6e6e6" stroke-width="1" class="highcharts-grid-line" d="M 74 225.5 L 444 225.5" opacity="1"></path><path fill="none" stroke="#e6e6e6" stroke-width="1" class="highcharts-grid-line" d="M 74 155.5 L 444 155.5" opacity="1"></path><path fill="none" stroke="#e6e6e6" stroke-width="1" class="highcharts-grid-line" d="M 74 84.5 L 444 84.5" opacity="1"></path></g><rect fill="none" class="highcharts-plot-border" x="74" y="85" width="370" height="279"></rect><g class="highcharts-axis highcharts-xaxis "><path fill="none" class="highcharts-tick" stroke="#FFFFFF" stroke-width="1" d="M 102.5 364 L 102.5 374" opacity="1"></path><path fill="none" class="highcharts-tick" stroke="#FFFFFF" stroke-width="1" d="M 154.5 364 L 154.5 374" opacity="1"></path><path fill="none" class="highcharts-tick" stroke="#FFFFFF" stroke-width="1" d="M 206.5 364 L 206.5 374" opacity="1"></path><path fill="none" class="highcharts-tick" stroke="#FFFFFF" stroke-width="1" d="M 258.5 364 L 258.5 374" opacity="1"></path><path fill="none" class="highcharts-tick" stroke="#FFFFFF" stroke-width="1" d="M 310.5 364 L 310.5 374" opacity="1"></path><path fill="none" class="highcharts-tick" stroke="#FFFFFF" stroke-width="1" d="M 362.5 364 L 362.5 374" opacity="1"></path><path fill="none" class="highcharts-tick" stroke="#FFFFFF" stroke-width="1" d="M 414.5 364 L 414.5 374" opacity="1"></path><path fill="none" class="highcharts-axis-line" stroke="#ccd6eb" stroke-width="1" d="M 74 364.5 L 444 364.5"></path></g><g class="highcharts-axis highcharts-yaxis "><path fill="none" class="highcharts-axis-line" d="M 74 85 L 74 364"></path></g><g class="highcharts-axis highcharts-yaxis "><path fill="none" class="highcharts-axis-line" d="M 444 85 L 444 364"></path></g><g class="highcharts-series-group"><g class="highcharts-series highcharts-series-0 highcharts-column-series highcharts-color-undefined highcharts-tracker" transform="translate(74,85) scale(1 1)" clip-path="url(#highcharts-8lcdz1q-2)"><rect x="16.5" y="45.5" width="25" height="234" fill="#73b97c" class="highcharts-point" stroke="#ffffff" stroke-width="1"></rect><rect x="68.5" y="45.5" width="25" height="234" fill="#73b97c" class="highcharts-point" stroke="#ffffff" stroke-width="1"></rect><rect x="120.5" y="42.5" width="25" height="237" fill="#73b97c" class="highcharts-point" stroke="#ffffff" stroke-width="1"></rect><rect x="172.5" y="38.5" width="25" height="241" fill="#73b97c" class="highcharts-point" stroke="#ffffff" stroke-width="1"></rect><rect x="223.5" y="41.5" width="25" height="238" fill="#73b97c" class="highcharts-point" stroke="#ffffff" stroke-width="1"></rect><rect x="275.5" y="45.5" width="25" height="234" fill="#73b97c" class="highcharts-point" stroke="#ffffff" stroke-width="1"></rect><rect x="327.5" y="31.5" width="25" height="248" fill="#73b97c" class="highcharts-point" stroke="#ffffff" stroke-width="1"></rect></g><g class="highcharts-markers highcharts-series-0 highcharts-column-series highcharts-color-undefined " transform="translate(74,85) scale(1 1)" clip-path="none"></g><g class="highcharts-series highcharts-series-1 highcharts-line-series highcharts-color-undefined " transform="translate(74,85) scale(1 1)" clip-path="url(#highcharts-8lcdz1q-3)"><path fill="none" d="M 29.101123595503 172.05 L 81.067415730335 172.05 L 133.03370786517 167.4 L 185 167.4 L 236.96629213483 167.4 L 288.93258426966 172.05 L 340.8988764045 162.75" class="highcharts-graph" stroke="#cd9c00" stroke-width="2" stroke-linejoin="round" stroke-linecap="round"></path><path fill="none" d="M 19.101123595503 172.05 L 29.101123595503 172.05 L 81.067415730335 172.05 L 133.03370786517 167.4 L 185 167.4 L 236.96629213483 167.4 L 288.93258426966 172.05 L 340.8988764045 162.75 L 350.8988764045 162.75" stroke-linejoin="round" visibility="visible" stroke="rgba(192,192,192,0.0001)" stroke-width="22" class="highcharts-tracker"></path></g><g class="highcharts-markers highcharts-series-1 highcharts-line-series highcharts-color-undefined highcharts-tracker" transform="translate(74,85) scale(1 1)" clip-path="none"><path fill="#cd9c00" d="M 33 172 A 4 4 0 1 1 32.99999800000017 171.99600000066667 Z" class="highcharts-point"></path><path fill="#cd9c00" d="M 85 172 A 4 4 0 1 1 84.99999800000016 171.99600000066667 Z" class="highcharts-point"></path><path fill="#cd9c00" d="M 137 167 A 4 4 0 1 1 136.99999800000018 166.99600000066667 Z" class="highcharts-point"></path><path fill="#cd9c00" d="M 189 167 A 4 4 0 1 1 188.99999800000018 166.99600000066667 Z" class="highcharts-point"></path><path fill="#cd9c00" d="M 240 167 A 4 4 0 1 1 239.99999800000018 166.99600000066667 Z" class="highcharts-point"></path><path fill="#cd9c00" d="M 292 172 A 4 4 0 1 1 291.9999980000002 171.99600000066667 Z" class="highcharts-point"></path><path fill="#cd9c00" d="M 344 163 A 4 4 0 1 1 343.9999980000002 162.99600000066667 Z" class="highcharts-point"></path></g></g><text x="10" text-anchor="start" class="highcharts-title" style="color:#000000;font-size:14px;font-weight:bold;fill:#000000;" y="21"><tspan>Freiraumfläche und ihr Anteil an der Gesamtfläche</tspan></text><g class="highcharts-legend" transform="translate(10,45)"><rect fill="none" class="highcharts-legend-box" rx="0" ry="0" x="0" y="0" width="216" height="25" visibility="visible"></rect><g><g><g class="highcharts-legend-item highcharts-column-series highcharts-color-undefined highcharts-series-0" transform="translate(8,3)"><text x="21" style="color:#333333;font-size:12px;font-weight:normal;cursor:pointer;fill:#333333;" text-anchor="start" y="15"><tspan>Freiräume in m²</tspan></text><rect x="2" y="4" width="12" height="12" fill="#73b97c" class="highcharts-point"></rect></g><g class="highcharts-legend-item highcharts-line-series highcharts-color-undefined highcharts-series-1" transform="translate(133.578125,3)"><path fill="none" d="M 0 11 L 16 11" class="highcharts-graph" stroke="#cd9c00" stroke-width="2"></path><path fill="#cd9c00" d="M 12 11 A 4 4 0 1 1 11.999998000000167 10.996000000666664 Z" class="highcharts-point"></path><text x="21" y="15" style="color:#333333;font-size:12px;font-weight:normal;cursor:pointer;fill:#333333;" text-anchor="start"><tspan>in Prozent</tspan></text></g></g></g></g><g class="highcharts-axis-labels highcharts-xaxis-labels "><text x="103.10112359550322" style="color:#000000;cursor:default;font-size:11px;fill:#000000;" text-anchor="middle" transform="translate(0,0)" y="383" opacity="1">2009</text><text x="155.06741573033548" style="color:#000000;cursor:default;font-size:11px;fill:#000000;" text-anchor="middle" transform="translate(0,0)" y="383" opacity="1">2010</text><text x="207.03370786516774" style="color:#000000;cursor:default;font-size:11px;fill:#000000;" text-anchor="middle" transform="translate(0,0)" y="383" opacity="1">2011</text><text x="259" style="color:#000000;cursor:default;font-size:11px;fill:#000000;" text-anchor="middle" transform="translate(0,0)" y="383" opacity="1">2012</text><text x="310.96629213483226" style="color:#000000;cursor:default;font-size:11px;fill:#000000;" text-anchor="middle" transform="translate(0,0)" y="383" opacity="1">2013</text><text x="362.9325842696645" style="color:#000000;cursor:default;font-size:11px;fill:#000000;" text-anchor="middle" transform="translate(0,0)" y="383" opacity="1">2014</text><text x="414.89887640449683" style="color:#000000;cursor:default;font-size:11px;fill:#000000;" text-anchor="middle" transform="translate(0,0)" y="383" opacity="1">2015</text></g><g class="highcharts-axis-labels highcharts-yaxis-labels "><text x="59" style="color:#000000;cursor:default;font-size:11px;fill:#000000;" text-anchor="end" transform="translate(0,0)" y="369" opacity="1"><tspan>0</tspan></text><text x="59" style="color:#000000;cursor:default;font-size:11px;fill:#000000;" text-anchor="end" transform="translate(0,0)" y="299" opacity="1"><tspan>250 000</tspan></text><text x="59" style="color:#000000;cursor:default;font-size:11px;fill:#000000;" text-anchor="end" transform="translate(0,0)" y="229" opacity="1"><tspan>500 000</tspan></text><text x="59" style="color:#000000;cursor:default;font-size:11px;fill:#000000;" text-anchor="end" transform="translate(0,0)" y="159" opacity="1"><tspan>750 000</tspan></text><text x="59" style="color:#000000;cursor:default;font-size:11px;fill:#000000;" text-anchor="end" transform="translate(0,0)" y="90" opacity="1"><tspan>1 000 000</tspan></text></g><g class="highcharts-axis-labels highcharts-yaxis-labels "><text x="459" style="color:#000000;cursor:default;font-size:11px;fill:#000000;" text-anchor="start" transform="translate(0,0)" y="369" opacity="1"><tspan>0%</tspan></text><text x="459" style="color:#000000;cursor:default;font-size:11px;fill:#000000;" text-anchor="start" transform="translate(0,0)" y="299" opacity="1"><tspan>2%</tspan></text><text x="459" style="color:#000000;cursor:default;font-size:11px;fill:#000000;" text-anchor="start" transform="translate(0,0)" y="229" opacity="1"><tspan>3%</tspan></text><text x="459" style="color:#000000;cursor:default;font-size:11px;fill:#000000;" text-anchor="start" transform="translate(0,0)" y="159" opacity="1"><tspan>5%</tspan></text><text x="459" style="color:#000000;cursor:default;font-size:11px;fill:#000000;" text-anchor="start" transform="translate(0,0)" y="90" opacity="1"><tspan>6%</tspan></text></g><text x="10" class="highcharts-credits" text-anchor="start" style="cursor:default;color:#000000;font-size:10px;fill:#000000;" y="400"><tspan>Quelle: Grundbuch- und Vermessungsamt  Basel-Stadt</tspan></text></svg>

<svg class="highcharts-root" xmlns="http://www.w3.org/2000/svg" viewBox="0 0 485 415" font-family="Arial" font-size="12">
    <defs>
        <clipPath id="a">
            <path fill="none" d="M0 0h370v279H0z"/>
        </clipPath>
        <clipPath id="b">
            <path fill="none" d="M0 0h370v279H0z"/>
        </clipPath>
    </defs>
    <rect fill="#fbfbfb" class="highcharts-background" width="485" height="415" rx="0" ry="0"/>
    <path fill="none" class="highcharts-plot-background" d="M74 85h370v279H74z"/>
    <g class="highcharts-grid highcharts-xaxis-grid">
        <path fill="none" class="highcharts-grid-line" d="M102.5 85v279m0-279v279m52-279v279m0-279v279m52-279v279m0-279v279m52-279v279m0-279v279m52-279v279m0-279v279m52-279v279m0-279v279m52-279v279m0-279v279"/>
    </g>
    <g class="highcharts-grid highcharts-yaxis-grid">
        <path fill="none" stroke="#e6e6e6" class="highcharts-grid-line" d="M74 364.5h370m-370-70h370m-370-69h370m-370-70h370m-370-71h370"/>
    </g>
    <g class="highcharts-grid highcharts-yaxis-grid">
        <path fill="none" stroke="#e6e6e6" class="highcharts-grid-line" d="M74 364.5h370m-370-70h370m-370-69h370m-370-70h370m-370-71h370"/>
    </g>
    <path fill="none" class="highcharts-plot-border" d="M74 85h370v279H74z"/>
    <g class="highcharts-axis highcharts-xaxis">
        <path fill="none" class="highcharts-tick" stroke="#FFF" d="M102.5 364v10m52-10v10m52-10v10m52-10v10m52-10v10m52-10v10m52-10v10"/>
        <path fill="none" class="highcharts-axis-line" stroke="#ccd6eb" d="M74 364.5h370"/>
    </g>
    <g class="highcharts-axis highcharts-yaxis">
        <path fill="none" class="highcharts-axis-line" d="M74 85v279"/>
    </g>
    <g class="highcharts-axis highcharts-yaxis">
        <path fill="none" class="highcharts-axis-line" d="M444 85v279"/>
    </g>
    <g class="highcharts-series-group">
        <g class="highcharts-series highcharts-series-0 highcharts-column-series highcharts-color-undefined highcharts-tracker" transform="translate(74 85)" clip-path="url(#a)">
            <path fill="#73b97c" class="highcharts-point" stroke="#fff" d="M16.5 45.5h25v234h-25zm52 0h25v234h-25zm52-3h25v237h-25zm52-4h25v241h-25zm51 3h25v238h-25zm52 4h25v234h-25zm52-14h25v248h-25z"/>
        </g>
        <g class="highcharts-series highcharts-series-1 highcharts-line-series highcharts-color-undefined" transform="translate(74 85)" clip-path="url(#b)">
            <path fill="none" d="M29.101 172.05h51.966l51.967-4.65h103.932l51.967 4.65 51.966-9.3" class="highcharts-graph" stroke="#cd9c00" stroke-width="2" stroke-linejoin="round" stroke-linecap="round"/>
            <path fill="none" d="M19.101 172.05h61.966l51.967-4.65h103.932l51.967 4.65 51.966-9.3h10" stroke-linejoin="round" stroke="rgba(192,192,192,0.0001)" stroke-width="22" class="highcharts-tracker"/>
        </g>
        <g class="highcharts-markers highcharts-series-1 highcharts-line-series highcharts-color-undefined highcharts-tracker">
            <path fill="#cd9c00" d="M107 257a4 4 0 1 1 0-.004zm52 0a4 4 0 1 1 0-.004zm52-5a4 4 0 1 1 0-.004zm52 0a4 4 0 1 1 0-.004zm51 0a4 4 0 1 1 0-.004zm52 5a4 4 0 1 1 0-.004zm52-9a4 4 0 1 1 0-.004z" class="highcharts-point"/>
        </g>
    </g>
    <text x="10" class="highcharts-title" y="21" color="#000" font-size="14" font-weight="700">
        <tspan>Freiraumfläche und ihr Anteil an der Gesamtfläche</tspan>
    </text>
    <g class="highcharts-legend" transform="translate(10 45)">
        <rect fill="none" class="highcharts-legend-box" rx="0" ry="0" width="216" height="25"/>
        <g class="highcharts-legend-item highcharts-column-series highcharts-color-undefined highcharts-series-0">
            <text x="21" y="15" color="#333" font-weight="400" cursor="pointer" fill="#333" transform="translate(8 3)">
                <tspan>Freiräume in m²</tspan>
            </text>
            <path fill="#73b97c" class="highcharts-point" d="M10 7h12v12H10z"/>
        </g>
        <g class="highcharts-legend-item highcharts-line-series highcharts-color-undefined highcharts-series-1">
            <path fill="none" d="M133.578 14h16" class="highcharts-graph" stroke="#cd9c00" stroke-width="2"/>
            <path fill="#cd9c00" d="M145.578 14a4 4 0 1 1 0-.004z" class="highcharts-point"/>
            <text x="21" y="15" color="#333" font-weight="400" cursor="pointer" fill="#333" transform="translate(133.578 3)">
                <tspan>in Prozent</tspan>
            </text>
        </g>
    </g>
    <g class="highcharts-axis-labels highcharts-xaxis-labels" text-anchor="middle" color="#000" cursor="default" font-size="11">
        <text x="103.101" y="383">
            2009
        </text>
        <text x="155.067" y="383">
            2010
        </text>
        <text x="207.034" y="383">
            2011
        </text>
        <text x="259" y="383">
            2012
        </text>
        <text x="310.966" y="383">
            2013
        </text>
        <text x="362.933" y="383">
            2014
        </text>
        <text x="414.899" y="383">
            2015
        </text>
    </g>
    <g class="highcharts-axis-labels highcharts-yaxis-labels" text-anchor="end" color="#000" cursor="default" font-size="11">
        <text x="59" y="369">
            <tspan>0</tspan>
        </text>
        <text x="59" y="299">
            <tspan>250 000</tspan>
        </text>
        <text x="59" y="229">
            <tspan>500 000</tspan>
        </text>
        <text x="59" y="159">
            <tspan>750 000</tspan>
        </text>
        <text x="59" y="90">
            <tspan>1 000 000</tspan>
        </text>
    </g>
    <g class="highcharts-axis-labels highcharts-yaxis-labels" color="#000" cursor="default" font-size="11">
        <text x="459" y="369">
            <tspan>0%</tspan>
        </text>
        <text x="459" y="299">
            <tspan>2%</tspan>
        </text>
        <text x="459" y="229">
            <tspan>3%</tspan>
        </text>
        <text x="459" y="159">
            <tspan>5%</tspan>
        </text>
        <text x="459" y="90">
            <tspan>6%</tspan>
        </text>
    </g>
    <text x="10" class="highcharts-credits" y="400" cursor="default" color="#000" font-size="10">
        <tspan>Quelle: Grundbuch- und Vermessungsamt Basel-Stadt</tspan>
    </text>
</svg>
